32x32/apps/gshutdown.svg

<svg xmlns="http://www.w3.org/2000/svg" width="32" height="32" version="1.1">
 <ellipse fill="#4f4f4f" cx="16" cy="16" rx="14" ry="14"/>
 <ellipse opacity=".2" cx="16" cy="17" rx="11" ry="11"/>
 <ellipse fill="#cb4444" cx="16" cy="16" rx="11" ry="11"/>
 <path opacity=".2" d="m15 8v6h2v-6h-2zm2.0391 2.084c0.11944 0.01846 0.2391 0.03983 0.35742 0.06445-0.11833-0.02462-0.23798-0.04599-0.35742-0.06445zm-2.334 0.041c-0.10954 0.02224-0.21782 0.04675-0.32617 0.07422 0.10835-0.02746 0.21663-0.05197 0.32617-0.07422zm3.0078 0.09375c0.12146 0.03114 0.24171 0.0659 0.36133 0.10352-0.11962-0.03762-0.23986-0.07238-0.36133-0.10352zm-3.6973 0.07422c-0.10227 0.03164-0.20398 0.06527-0.30469 0.10156 0.10071-0.0363 0.20242-0.06992 0.30469-0.10156zm4.4141 0.14648c0.06332 0.02312 0.12683 0.04733 0.18945 0.07227-0.06262-0.02494-0.12614-0.04915-0.18945-0.07227zm-4.9727 0.04687c-2.685 1.047-4.4538 3.632-4.457 6.514 0 3.866 3.134 7 7 7s7-3.134 7-7c-0.0036-2.7987-1.6729-5.327-4.2461-6.4277l-0.754 1.848a5 5 0 0 1 3 4.58 5 5 0 0 1 -5 5 5 5 0 0 1 -5 -5 5 5 0 0 1 3.0645 -4.6055l-0.60742-1.9082z"/>
 <path fill="#fff" d="m15 7v6h2v-6h-2zm2.0391 2.084c0.11944 0.018461 0.2391 0.039833 0.35742 0.064453-0.11833-0.02462-0.23798-0.045992-0.35742-0.064453zm-2.334 0.041c-0.109 0.0222-0.218 0.0468-0.326 0.0742 0.108-0.0274 0.217-0.052 0.326-0.0742zm3.0078 0.09375c0.12146 0.031141 0.24171 0.065896 0.36133 0.10352-0.11962-0.03762-0.23986-0.072375-0.36133-0.10352zm-3.6973 0.074219c-0.10227 0.03164-0.20398 0.065265-0.30469 0.10156 0.10071-0.036297 0.20242-0.069922 0.30469-0.10156zm4.4141 0.14648c0.06332 0.023119 0.12683 0.047328 0.18945 0.072266-0.06262-0.024938-0.12614-0.049148-0.18945-0.072266zm-4.9727 0.046875c-2.685 1.0466-4.4538 3.6316-4.457 6.5136 0 3.866 3.134 7 7 7s7-3.134 7-7c-0.0036-2.7987-1.6729-5.327-4.2461-6.4277l-0.754 1.8477a5 5 0 0 1 3 4.58 5 5 0 0 1 -5 5 5 5 0 0 1 -5 -5 5 5 0 0 1 3.064 -4.605l-0.607-1.9087z"/>
 <path fill="#fff" opacity=".1" d="m16 2a14 14 0 0 0 -14 14 14 14 0 0 0 0.0215 0.586 14 14 0 0 1 13.978 -13.586 14 14 0 0 1 13.979 13.414 14 14 0 0 0 0.021 -0.414 14 14 0 0 0 -14 -14z"/>
 <path opacity=".2" d="m29.979 16.414a14 14 0 0 1 -13.979 13.586 14 14 0 0 1 -13.978 -13.414 14 14 0 0 0 -0.022 0.414 14 14 0 0 0 14 14 14 14 0 0 0 14 -14 14 14 0 0 0 -0.021 -0.586z"/>
</svg>

<svg xmlns="http://www.w3.org/2000/svg" width="32" height="32"><circle fill="#4f4f4f" cx="16" cy="16" r="14"/><circle opacity=".2" cx="16" cy="17" r="11"/><circle fill="#cb4444" cx="16" cy="16" r="11"/><path opacity=".2" d="M15 8v6h2V8h-2zm2.04 2.084zm-2.335.041zm3.008.094zm-3.697.074zm4.414.146zm-4.973.047A7 7 0 0 0 9 17a7 7 0 1 0 14 0 7 7 0 0 0-4.246-6.427L18 12.42A5 5 0 0 1 21 17a5 5 0 0 1-5 5 5 5 0 0 1-5-5 5 5 0 0 1 3.064-4.606l-.607-1.908z"/><path fill="#fff" d="M15 7v6h2V7h-2zm2.04 2.084zm-2.335.041zm3.008.094zm-3.697.074zm4.414.146zm-4.973.047A6.999 6.999 0 0 0 9 16a7 7 0 1 0 14 0 7 7 0 0 0-4.246-6.428L18 11.42A5 5 0 0 1 21 16a5 5 0 0 1-5 5 5 5 0 0 1-5-5 5 5 0 0 1 3.064-4.605l-.607-1.909z"/><path fill="#fff" opacity=".1" d="M16 2A14 14 0 0 0 2 16a14 14 0 0 0 .021.586A14 14 0 0 1 16 3a14 14 0 0 1 13.978 13.414A14 14 0 0 0 30 16 14 14 0 0 0 16 2z"/><path opacity=".2" d="M29.979 16.414A14 14 0 0 1 16 30 14 14 0 0 1 2.022 16.586 14 14 0 0 0 2 17a14 14 0 0 0 14 14 14 14 0 0 0 14-14 14 14 0 0 0-.021-.586z"/></svg>
